src/assets/mediaicons/discord.svg

<svg fill="none" height="25" viewBox="0 0 33 25" width="33" xmlns="http://www.w3.org/2000/svg" xmlns:xlink="http://www.w3.org/1999/xlink"><clipPath id="a"><path d="m0 0h33v25h-33z"/></clipPath><g clip-path="url(#a)"><path d="m11.3849 0h.5117c.1192.225256.2402.450513.356.677502.5324 1.048308.5289 1.029248 1.6974.904488 1.7544-.18713 3.5105-.18713 5.2632.0208 1.0094.12129 1.0059.12822 1.4467-.757212.14-.285902.2956-.564874.4442-.845578h.5117c1.9272.457444 3.8354.970336 5.659 1.76393.3768.16288.7121.34655.9524.71043 2.1104 3.2073 3.628 6.65892 4.3021 10.45534.1971 1.1107.3146 2.2335.4684 3.3529v3.462c.0433 1.0015-.6118 1.4919-1.3637 1.958-1.2687.7867-2.5461 1.5508-3.9236 2.1295-.9594.4038-1.9308.7798-2.897 1.1679h-.3837c-.5358-.7711-1.0578-1.5491-1.5072-2.3756-.1953-.3604-.1314-.5822.261-.7451.5496-.2287 1.0889-.4869 1.6213-.7554.1867-.0936.5133-.1647.3543-.4887-.1175-.2426-.3768-.2564-.6188-.1854-.1417.0416-.2783.1057-.4165.1612-5.0783 2.0585-10.1565 2.0671-15.23652.0069-.19532-.0797-.39755-.1577-.60497-.1923-.2005-.033-.39236.0485-.46668.2529-.07951.2184.10889.3067.25581.3812.47533.2392.95239.4748 1.43809.6949.83487.3777.85387.3864.36817 1.1973-.41484.6948-.86943 1.3671-1.305 2.0498h-.38372c-.21433-.0901-.42521-.194-.64472-.2703-2.18134-.7589-4.23303-1.7743-6.17238-3.0305-.732871-.4765-1.4225318-.9461-1.36894915-1.958 0-1.1974 0-2.393 0-3.5903.03111255-.1663.07950975-.3327.09333755-.5007.3647076-4.701 1.9635416-8.96871 4.4940316-12.9159.30248-.47131.67583-.7832 1.19092-.99979 1.81143-.765874 3.70066-1.271835 5.60368-1.73621zm2.5443 13.7424c.0069-1.7033-1.1148-3.0912-2.5944-3.2125-2.00676-.1646-3.58313 1.7344-3.16829 3.8155.40792 2.0394 2.17959 3.1449 3.90119 2.4345 1.1269-.4661 1.8563-1.6548 1.8615-3.0375zm5.1422.1022c.0035.0711 0 .2443.026.4107.1866 1.18.7726 2.0775 1.8961 2.5402 1.0267.421 1.9722.194 2.7949-.5147.7001-.603.9991-1.4225 1.0907-2.3184.2005-1.9493-1.3396-3.585-3.2167-3.4308-1.4778.1213-2.5996 1.511-2.5944 3.3147z" fill="#fff"/></g></svg>

<svg width="33" height="25" viewBox="0 0 33 25" fill="none" xmlns="http://www.w3.org/2000/svg">
<g clip-path="url(#clip0_320_12)">
<path d="M11.3849 0C11.556 0 11.7254 0 11.8966 0C12.0158 0.225256 12.1368 0.450513 12.2526 0.677502C12.785 1.72581 12.7815 1.70675 13.95 1.58199C15.7044 1.39486 17.4605 1.39486 19.2132 1.60279C20.2226 1.72408 20.2191 1.73101 20.6599 0.845578C20.7999 0.559676 20.9555 0.280704 21.1041 0C21.2752 0 21.4446 0 21.6158 0C23.543 0.457444 25.4512 0.970336 27.2748 1.76393C27.6516 1.92681 27.9869 2.11048 28.2272 2.47436C30.3376 5.68166 31.8552 9.13328 32.5293 12.9297C32.7264 14.0404 32.8439 15.1632 32.9977 16.2826V19.7446C33.041 20.7461 32.3859 21.2365 31.634 21.7026C30.3653 22.4893 29.0879 23.2534 27.7104 23.8321C26.751 24.2359 25.7796 24.6119 24.8134 25H24.4297C23.8939 24.2289 23.3719 23.4509 22.9225 22.6244C22.7272 22.264 22.7911 22.0422 23.1835 21.8793C23.7331 21.6506 24.2724 21.3924 24.8048 21.1239C24.9915 21.0303 25.3181 20.9592 25.1591 20.6352C25.0416 20.3926 24.7823 20.3788 24.5403 20.4498C24.3986 20.4914 24.262 20.5555 24.1238 20.611C19.0455 22.6695 13.9673 22.6781 8.88728 20.6179C8.69196 20.5382 8.48973 20.4602 8.28231 20.4256C8.08181 20.3926 7.88995 20.4741 7.81563 20.6785C7.73612 20.8969 7.92452 20.9852 8.07144 21.0597C8.54677 21.2989 9.02383 21.5345 9.50953 21.7546C10.3444 22.1323 10.3634 22.141 9.8777 22.9519C9.46286 23.6467 9.00827 24.319 8.5727 25.0017H8.18898C7.97465 24.9116 7.76377 24.8077 7.54426 24.7314C5.36292 23.9725 3.31123 22.9571 1.37188 21.7009C0.639009 21.2244 -0.0506518 20.7548 0.00293085 19.7429C0.00293085 18.5455 0.00293085 17.3499 0.00293085 16.1526C0.0340434 15.9863 0.0824406 15.8199 0.0962684 15.6519C0.460976 10.9509 2.05981 6.68319 4.5903 2.736C4.89278 2.26469 5.26613 1.9528 5.78122 1.73621C7.59265 0.970336 9.48188 0.464375 11.3849 0ZM13.9292 13.7424C13.9361 12.0391 12.8144 10.6512 11.3348 10.5299C9.32804 10.3653 7.75167 12.2643 8.16651 14.3454C8.57443 16.3848 10.3461 17.4903 12.0677 16.7799C13.1946 16.3138 13.924 15.1251 13.9292 13.7424ZM19.0714 13.8446C19.0749 13.9157 19.0714 14.0889 19.0974 14.2553C19.284 15.4353 19.87 16.3328 20.9935 16.7955C22.0202 17.2165 22.9657 16.9895 23.7884 16.2808C24.4885 15.6778 24.7875 14.8583 24.8791 13.9624C25.0796 12.0131 23.5395 10.3774 21.6624 10.5316C20.1846 10.6529 19.0628 12.0426 19.068 13.8463L19.0714 13.8446Z" fill="white"/>
</g>
<defs>
<clipPath id="clip0_320_12">
<rect width="33" height="25" fill="white"/>
</clipPath>
</defs>
</svg>
